X: 35
T: Missa Ma bouche rit / Gloria
N: Derived from Mar1010b-Missa_Ma_bouche_rit-Gloria.krn
C: Johannes Martini
%%abc-version 2.0
%%abcx-abcm2ps-target-version 5.9.1 (29 Sep 2008)
%%abc-creator hum2abc beta
%%abcx-conversion-date 2019/02/17 07:19:41
%%abc-edited-by Jesse Rodin
%%abc-edited-by Chris Gage 10-22-2014
%%abcx-initial-encoding-date 2015/03/07/
%%humdrum-veritas 3025624585
%%humdrum-veritas-data 3284701921
%%linebreak <none>
%%barnumbers 0
L: 1/4
M: 4/2
Q: 1/2=120
%%staves [1 2 3 4]
V: 1 clef=treble
V: 2 clef=treble-8
V: 3 clef=treble-8
V: 4 clef=bass
K: C
[V:1] A8 | 
[V:2] A8 | 
[V:3] z8 | 
[V:4] z8 | 
[V:1] E3FG2A2- | 
[V:2] c4c4 | 
[V:3] z8 | 
[V:4] z8 | 
[V:1] A2^G2A4 | 
[V:2] B4A4 | 
[V:3] z8 | 
[V:4] z8 | 
[V:1] G4c4 | 
[V:2] B2c2A4 | 
[V:3] z8 | 
[V:4] z8 | 
[V:1] B2d4cB | 
[V:2] G6A2 | 
[V:3] z8 | 
[V:4] z8 | 
[V:1] A3GB4 | 
[V:2] c3BG4 | 
[V:3] z8 | 
[V:4] z8 | 
[V:1] E4z4 | 
[V:2] g6g2 | 
[V:3] z4e4- | 
[V:4] z4C,4 | 
[V:1] z8 | 
[V:2] g4f2ed | 
[V:3] e2e2d2cB | 
[V:4] C,2C,2D,2E,2 | 
[V:1] z8 | 
[V:2] c3de2f2 | 
[V:3] A4G2A2 | 
[V:4] F,4C,4 | 
[V:1] z8 | 
[V:2] g2e2d4 | 
[V:3] B2c4B2 | 
[V:4] z4G,4 | 
[V:1] z4G4 | 
[V:2] c4G4 | 
[V:3] c4z4 | 
[V:4] A,4B,4 | 
[V:1] A2G2B4 | 
[V:2] z2g4e2- | 
[V:3] z8 | 
[V:4] C4B,2G,2 | 
[V:1] c4B2G2 | 
[V:2] e2f2g2e2 | 
[V:3] z8 | 
[V:4] A,4z2E,2- | 
[V:1] A4z2E2- | 
[V:2] f4e4 | 
[V:3] z8 | 
[V:4] E,2D,2E,2G,2 | 
[V:1] E2D2E4 | 
[V:2] A4G4 | 
[V:3] z4c4 | 
[V:4] F,3E,C,4 | 
[V:1] F4G4- | 
[V:2] d4B2e2- | 
[V:3] A4G2E2- | 
[V:4] D,4E,3C, | 
[V:1] G2E2F4 | 
[V:2] efed/c/B4 | 
[V:3] E2C2D4 | 
[V:4] G,2A,2F,4 | 
[V:1] E4A4 | 
[V:2] c4f4 | 
[V:3] C4z4 | 
[V:4] G,4D,2F,2- | 
[V:1] F2G4C2 | 
[V:2] d2e3dc2- | 
[V:3] z8 | 
[V:4] F,2E,2A,4 | 
[V:1] D4C4 | 
[V:2] c2B2c4 | 
[V:3] z8 | 
[V:4] G,4C,4- | 
[V:1] z2G2A2B2- | 
[V:2] c4A2G2 | 
[V:3] e4c2d2- | 
[V:4] C,4z4 | 
[V:1] Bcd4c2- | 
[V:2] d4e2c2 | 
[V:3] d2B2A4 | 
[V:4] z8 | 
[V:1] c2B2c4 | 
[V:2] d4c4 | 
[V:3] G4z2G2 | 
[V:4] z4C,4- | 
[V:1] c2c2c4 | 
[V:2] e2f2g4 | 
[V:3] c2d2e4 | 
[V:4] C,2C,2C,4 | 
[V:1] B6B2 | 
[V:2] g6g2 | 
[V:3] d6d2 | 
[V:4] G,6G,2 | 
[V:1] B4A4 | 
[V:2] g4e4 | 
[V:3] d4c4 | 
[V:4] G,4A,4 | 
[V:1] G4c4 | 
[V:2] d2g2a2f2- | 
[V:3] B4A4- | 
[V:4] D4E2C2- | 
[V:1] A4B4- | 
[V:2] fef2g4- | 
[V:3] A4G4 | 
[V:4] CB,C2D4 | 
[V:1] B2G2G4 | 
[V:2] g2e2e4 | 
[V:3] B4c4 | 
[V:4] G,4C,4 | 
[V:1] G2A4G2- | 
[V:2] g2f2f2e2 | 
[V:3] c4c2B2 | 
[V:4] E,2F,4G,2 | 
[V:1] G2^F2G4 | 
[V:2] d4z2g2 | 
[V:3] A4G4 | 
[V:4] D,4E,4 | 
[V:1] z8 | 
[V:2] g2g2a4 | 
[V:3] z2c4d2 | 
[V:4] E,2E,2F,3E, | 
[V:1] z8 | 
[V:2] g4z4 | 
[V:3] e4c2f2- | 
[V:4] C,4F,3G, | 
[V:1] z8 | 
[V:2] z8 | 
[V:3] f2e2d2e2- | 
[V:4] A,2G,3F,G,2 | 
[V:1] z8 | 
[V:2] z8 | 
[V:3] edc4B2 | 
[V:4] E,2F,2D,4 | 
[V:1] z4G4 | 
[V:2] z4e4- | 
[V:3] c4z4 | 
[V:4] C,4C,4 | 
[V:1] C2G4A2 | 
[V:2] e2e2e4 | 
[V:3] z8 | 
[V:4] C,4C,4 | 
[V:1] G2c4B2 | 
[V:2] e4d4 | 
[V:3] z8 | 
[V:4] C,2C,2G,2G,2 | 
[V:1] c4B2c2 | 
[V:2] c4d4- | 
[V:3] z8 | 
[V:4] C,4G,4- | 
[V:1] d4c2A2- | 
[V:2] d2e2f4 | 
[V:3] B4c4 | 
[V:4] G,4A,2F,2- | 
[V:1] A2GFE4 | 
[V:2] z8 | 
[V:3] d2d4^c2 | 
[V:4] F,2G,2A,4 | 
[V:1] F4E4 | 
[V:2] z8 | 
[V:3] d4z2c2 | 
[V:4] D,4A,4 | 
[V:1] z8 | 
[V:2] z8 | 
[V:3] d2f2e2d2- | 
[V:4] _B,2A,3G,F,2 | 
[V:1] z4z2A2 | 
[V:2] z4f4 | 
[V:3] d2^c2d4 | 
[V:4] E,4D,4 | 
[V:1] B2c2d2d2- | 
[V:2] g2a2d4 | 
[V:3] z8 | 
[V:4] G,2F,2_B,4 | 
[V:1] d2c2d3c | 
[V:2] e4d4 | 
[V:3] z4d4- | 
[V:4] A,4D,4 | 
[V:1] BAA4G2 | 
[V:2] G2F2_B4 | 
[V:3] d8- | 
[V:4] z8 | 
[V:1] F2_B4A2- | 
[V:2] A2z2A2d2- | 
[V:3] d4c2A2 | 
[V:4] D,4F,4 | 
[V:1] A2G2A3G | 
[V:2] d2e2f3e | 
[V:3] B4A4 | 
[V:4] G,4D,4 | 
[V:1] E4z4 | 
[V:2] c4z4 | 
[V:3] z4E3F | 
[V:4] A,4G,4- | 
[V:1] z8 | 
[V:2] z8 | 
[V:3] G2A2B2c2- | 
[V:4] G,2F,2G,2E,2 | 
[V:1] z4E3F | 
[V:2] z4g4- | 
[V:3] c2B2c2e2- | 
[V:4] D,4C,3D, | 
[V:1] G2A2B2c2- | 
[V:2] g2f2d2f2 | 
[V:3] e2d4c2 | 
[V:4] E,2F,2G,2A,2 | 
[V:1] c2B2c2d2- | 
[V:2] g4e2d2- | 
[V:3] d4c2A2 | 
[V:4] G,4A,2B,2 | 
[V:1] d2cBA4 | 
[V:2] d2e2f4 | 
[V:3] B4c4- | 
[V:4] G,4F,4 | 
[V:1] G4z2A2- | 
[V:2] z8 | 
[V:3] c4d2cB | 
[V:4] E,4D,4 | 
[V:1] A2GFE4 | 
[V:2] c8 | 
[V:3] A4G2A2 | 
[V:4] F,4C,4 | 
[V:1] D2E4D2- | 
[V:2] B4A4 | 
[V:3] B2G2A2F2 | 
[V:4] G,4F,4 | 
[V:1] D2C2D2F2 | 
[V:2] e4f2d2- | 
[V:3] E4D4 | 
[V:4] G,4A,4 | 
[V:1] G2A2B2c2- | 
[V:2] d2c2g2c2 | 
[V:3] z2F2G2A2- | 
[V:4] B,2A,2G,2F,2- | 
[V:1] c2B2G2A2- | 
[V:2] f2d2e2A2 | 
[V:3] A2B2c4 | 
[V:4] F,2G,2C,2F,2- | 
[V:1] A2G2E2F2- | 
[V:2] z2e6 | 
[V:3] A2B2c2A2- | 
[V:4] F,2E,2C,4 | 
[V:1] F2G3FE2- | 
[V:2] d2B4c2 | 
[V:3] A2G2E4 | 
[V:4] D,2E,4C,2 | 
[V:1] E2D2E4- | 
[V:2] A3GB4- | 
[V:3] F4E4- | 
[V:4] D,4z2G,2- | 
[V:1] E8 ||  
[V:2] B8 ||  
[V:3] E8 ||  
[V:4] G,2E,2E,4 ||  
[V:1]  [K:C] [K:clef=treble][M:2/1]B8 | 
[V:2]  [K:C] [K:clef=treble-8][M:2/1]z8 | 
[V:3]  [K:C] [K:clef=treble-8][M:2/1]z8 | 
[V:4]  [K:C] [K:clef=bass][M:2/1]z8 | 
[V:1] c4c4 | 
[V:2] e8 | 
[V:3] z8 | 
[V:4] z8 | 
[V:1] d6G2 | 
[V:2] f4f4 | 
[V:3] z8 | 
[V:4] z8 | 
[V:1] G4z4 | 
[V:2] g6c2 | 
[V:3] z8 | 
[V:4] E,8 | 
[V:1] z4A4 | 
[V:2] c4f4 | 
[V:3] z8 | 
[V:4] F,4F,4 | 
[V:1] B4d4- | 
[V:2] d4g4- | 
[V:3] B8 | 
[V:4] G,8 | 
[V:1] d4c4 | 
[V:2] g2^fe^f4 | 
[V:3] c4c4 | 
[V:4] A,8 | 
[V:1] B6A2 | 
[V:2] g8 | 
[V:3] d6cB | 
[V:4] G,8 | 
[V:1] c6A2- | 
[V:2] e6f2- | 
[V:3] A8 | 
[V:4] z8 | 
[V:1] A2F2E4 | 
[V:2] fed4^c2 | 
[V:3] A8 | 
[V:4] z8 | 
[V:1] D8 | 
[V:2] d8 | 
[V:3] D4G4- | 
[V:4] A,4G,2B,2- | 
[V:1] z8 | 
[V:2] z8 | 
[V:3] G4A4 | 
[V:4] B,A,G,4^F,2 | 
[V:1] D4G4 | 
[V:2] z4e4 | 
[V:3] B4B4 | 
[V:4] G,4E,4- | 
[V:1] G4A4 | 
[V:2] g4f4 | 
[V:3] c6BA | 
[V:4] E,4F,4 | 
[V:1] B4B4 | 
[V:2] g4d4 | 
[V:3] G8 | 
[V:4] E,4G,4 | 
[V:1] c6BA | 
[V:2] f4f4 | 
[V:3] A6B2 | 
[V:4] F,6E,2 | 
[V:1] G8 | 
[V:2] e8 | 
[V:3] c8 | 
[V:4] C,8 | 
[V:1] A8 | 
[V:2] f8 | 
[V:3] z4c4- | 
[V:4] F,8 | 
[V:1] A4A4- | 
[V:2] f4f4- | 
[V:3] c2c2c4 | 
[V:4] F,4F,4- | 
[V:1] A4A4- | 
[V:2] f4f4- | 
[V:3] c4F4- | 
[V:4] F,4A,4 | 
[V:1] A2A2A4 | 
[V:2] f2f2f4 | 
[V:3] F2F2F4 | 
[V:4] C6C2 | 
[V:1] A4A2G2- | 
[V:2] f4e4 | 
[V:3] F4C4 | 
[V:4] C4C4 | 
[V:1] GFE2D4 | 
[V:2] d2c4B2 | 
[V:3] z8 | 
[V:4] B,2C2G,4 | 
[V:1] C4z4 | 
[V:2] c4z4 | 
[V:3] c4B4 | 
[V:4] C,4G,4 | 
[V:1] z8 | 
[V:2] z8 | 
[V:3] c2d4B2 | 
[V:4] A,2F,2G,4 | 
[V:1] z8 | 
[V:2] z8 | 
[V:3] c2A4B2 | 
[V:4] E,2F,2D,2G,2- | 
[V:1] z8 | 
[V:2] z8 | 
[V:3] G2c4B2 | 
[V:4] G,2E,2D,4 | 
[V:1] E3DE2F2- | 
[V:2] z8 | 
[V:3] c4A4 | 
[V:4] C,4z4 | 
[V:1] FEF2G3F | 
[V:2] z8 | 
[V:3] z2A2G2c2- | 
[V:4] z8 | 
[V:1] G2A2F2G2 | 
[V:2] z8 | 
[V:3] cBc2d2B2 | 
[V:4] z8 | 
[V:1] A2B4E2- | 
[V:2] z8 | 
[V:3] c2d2e4 | 
[V:4] z8 | 
[V:1] E2c4B2- | 
[V:2] z8 | 
[V:3] A6G2 | 
[V:4] z8 | 
[V:1] B2A4^G2 | 
[V:2] z8 | 
[V:3] A2c2B4 | 
[V:4] z8 | 
[V:1] A4z4 | 
[V:2] z4e4 | 
[V:3] z8 | 
[V:4] A,4C4 | 
[V:1] z8 | 
[V:2] f2a4g2 | 
[V:3] z8 | 
[V:4] D4A,2C2- | 
[V:1] z8 | 
[V:2] e2g4f2 | 
[V:3] z8 | 
[V:4] C2B,A,G,2A,2 | 
[V:1] z8 | 
[V:2] d2e4d2- | 
[V:3] z8 | 
[V:4] B,2G,4F,2 | 
[V:1] z8 | 
[V:2] d2c4B2 | 
[V:3] z8 | 
[V:4] G,2E,2D,4 | 
[V:1] C3DE2F2 | 
[V:2] c4z4 | 
[V:3] z8 | 
[V:4] C,4C,3D, | 
[V:1] G2A2B2c2- | 
[V:2] z8 | 
[V:3] z8 | 
[V:4] E,2F,2G,2A,2- | 
[V:1] c2BAG2A2- | 
[V:2] z8 | 
[V:3] z8 | 
[V:4] A,2G,F,E,2C2- | 
[V:1] A2G2E2F2 | 
[V:2] z8 | 
[V:3] z8 | 
[V:4] C2B,A,G,2A,2 | 
[V:1] G2E4D2 | 
[V:2] z8 | 
[V:3] z8 | 
[V:4] E,4F,4 | 
[V:1] E4z4 | 
[V:2] z8 | 
[V:3] z4c4 | 
[V:4] E,2C,4E,2 | 
[V:1] z8 | 
[V:2] z8 | 
[V:3] B4A4 | 
[V:4] D,2G,4F,2 | 
[V:1] z8 | 
[V:2] z8 | 
[V:3] G2c4d2 | 
[V:4] G,2E,2F,3E, | 
[V:1] z8 | 
[V:2] z8 | 
[V:3] e3dB2d2- | 
[V:4] C,4D,3E, | 
[V:1] z8 | 
[V:2] z8 | 
[V:3] d2c4B2 | 
[V:4] F,G,E,2F,2G,2 | 
[V:1] z8 | 
[V:2] z8 | 
[V:3] c2B2A4 | 
[V:4] A,2G,4^F,2 | 
[V:1] G4A4 | 
[V:2] G4c4 | 
[V:3] z8 | 
[V:4] G,4z4 | 
[V:1] B4c3B | 
[V:2] d2e4f2 | 
[V:3] z8 | 
[V:4] z8 | 
[V:1] G2d4e2- | 
[V:2] g2fed2g2- | 
[V:3] z8 | 
[V:4] z8 | 
[V:1] edc4B2 | 
[V:2] gef2d4 | 
[V:3] z8 | 
[V:4] z8 | 
[V:1] c8 | 
[V:2] z4a4- | 
[V:3] A8 | 
[V:4] C8 | 
[V:1] z4c4 | 
[V:2] a2g2e2a2- | 
[V:3] A4A4 | 
[V:4] C4C4 | 
[V:1] c4c4 | 
[V:2] a2g4^f2 | 
[V:3] A8 | 
[V:4] C8 | 
[V:1] B8 | 
[V:2] g8 | 
[V:3] G8 | 
[V:4] D8 | 
[V:1] c4B2d2- | 
[V:2] f4g4 | 
[V:3] A4G4 | 
[V:4] z4G,4 | 
[V:1] d2cBA4 | 
[V:2] e4A4 | 
[V:3] c4d4 | 
[V:4] A,4F,4 | 
[V:1] G4z2C2- | 
[V:2] B4c3B | 
[V:3] e4e2e2- | 
[V:4] E,8- | 
[V:1] CDEFG2A2 | 
[V:2] G4z2e2 | 
[V:3] e2dcB2c2 | 
[V:4] E,8 | 
[V:1] B2c3BA2 | 
[V:2] f2g3fe2- | 
[V:3] d2e3dc2 | 
[V:4] z4C,3D, | 
[V:1] G2A4^G2 | 
[V:2] e2d2e4 | 
[V:3] B2A2B4 | 
[V:4] E,2F,2E,4 | 
[V:1] A8 |]  
[V:2] c8 |]  
[V:3] A8 |]  
[V:4] A,,8 |]  



